src/lib/packages/icons/src/assets/line/discord.svg

<svg width="24" height="24" viewBox="0 0 24 24" fill="none" xmlns="http://www.w3.org/2000/svg">
<path d="M10.48 13.1698C10.48 14.2698 9.67997 15.1698 8.67997 15.1698C7.67997 15.1698 6.87999 14.2698 6.87999 13.1698C6.87999 12.0698 7.66997 11.1698 8.67997 11.1698C9.68997 11.1698 10.5 12.0698 10.48 13.1698ZM15.32 11.1698C14.31 11.1698 13.52 12.0698 13.52 13.1698C13.52 14.2698 14.33 15.1698 15.32 15.1698C16.31 15.1698 17.12 14.2698 17.12 13.1698C17.14 12.0698 16.32 11.1698 15.32 11.1698ZM22.65 17.5698C22.63 17.7798 22.52 17.9798 22.34 18.0998C20.71 19.2798 18.98 20.1298 17.05 20.7198C16.98 20.7398 16.9 20.7498 16.83 20.7498C16.6 20.7498 16.37 20.6398 16.23 20.4498C15.79 19.8498 15.4 19.2397 15.09 18.6197C13.05 19.1297 10.94 19.1297 8.89 18.6197C8.56 19.2797 8.16997 19.8997 7.73997 20.4597C7.54997 20.7097 7.22999 20.8198 6.91999 20.7198C5.01999 20.1398 3.28999 19.2898 1.62999 18.0998C1.44999 17.9698 1.33999 17.7797 1.31999 17.5597C0.919988 13.3097 1.92997 9.46974 4.42997 5.82974C4.50997 5.71974 4.60997 5.62976 4.73997 5.56976C6.10997 4.93976 7.55998 4.49975 9.05998 4.24975C9.37998 4.19975 9.68998 4.34976 9.83998 4.62976C9.95998 4.84976 10.07 5.04974 10.16 5.23974C11.38 5.10974 12.61 5.10974 13.84 5.23974C13.94 5.02974 14.06 4.80975 14.17 4.61975C14.33 4.34975 14.63 4.20976 14.94 4.25976C16.42 4.50976 17.87 4.94974 19.26 5.57974C19.38 5.63974 19.49 5.71975 19.57 5.83975C22.05 9.40975 23.09 13.3598 22.66 17.5698H22.65ZM18.44 6.85974C17.4 6.39974 16.31 6.05975 15.21 5.83975C15.12 6.01975 15.04 6.18975 14.99 6.33975C14.86 6.65975 14.53 6.85975 14.19 6.80975C12.73 6.59975 11.25 6.59975 9.80998 6.80975C9.45998 6.85975 9.12998 6.66975 8.99998 6.33975C8.94998 6.20975 8.86997 6.03975 8.76997 5.83975C7.65997 6.05975 6.57997 6.40974 5.54997 6.85974C3.40997 10.0497 2.50999 13.3897 2.78999 17.0797C4.07999 17.9597 5.40999 18.6397 6.84999 19.1197C6.95999 18.9597 7.05998 18.8098 7.15998 18.6398C6.81998 18.4798 6.48 18.2998 6.14 18.0998C5.93 17.9698 5.78997 17.7498 5.76997 17.4998C5.75997 17.2498 5.85998 17.0097 6.05998 16.8597L6.16999 16.7797C6.25999 16.7097 6.35998 16.6398 6.43998 16.5698C6.65998 16.3798 6.96997 16.3397 7.23997 16.4597C10.32 17.8497 13.69 17.8497 16.74 16.4597C17 16.3397 17.32 16.3798 17.54 16.5698C17.65 16.6698 17.78 16.7598 17.9 16.8498C18.11 16.9998 18.22 17.2397 18.21 17.4897C18.2 17.7397 18.06 17.9698 17.84 18.0998C17.51 18.2998 17.17 18.4798 16.81 18.6398C16.91 18.7998 17.01 18.9597 17.12 19.1197C18.58 18.6297 19.91 17.9597 21.18 17.0797C21.48 13.3797 20.58 10.0297 18.44 6.85974Z" fill="currentColor"/>
</svg>

<svg xmlns="http://www.w3.org/2000/svg" width="24" height="24" fill="none"><path fill="currentColor" d="M10.48 13.17c0 1.1-.8 2-1.8 2s-1.8-.9-1.8-2 .79-2 1.8-2 1.82.9 1.8 2Zm4.84-2c-1.01 0-1.8.9-1.8 2s.81 2 1.8 2 1.8-.9 1.8-2c.02-1.1-.8-2-1.8-2Zm7.33 6.4a.72.72 0 0 1-.31.53 17.675 17.675 0 0 1-5.29 2.62.753.753 0 0 1-.82-.27c-.44-.6-.83-1.21-1.14-1.83-2.04.51-4.15.51-6.2 0-.33.66-.72 1.28-1.15 1.84-.19.25-.51.36-.82.26-1.9-.58-3.63-1.43-5.29-2.62a.739.739 0 0 1-.31-.54c-.4-4.25.61-8.09 3.11-11.73.08-.11.18-.2.31-.26a17.02 17.02 0 0 1 4.32-1.32c.32-.05.63.1.78.38.12.22.23.42.32.61 1.22-.13 2.45-.13 3.68 0 .1-.21.22-.43.33-.62.16-.27.46-.41.77-.36 1.48.25 2.93.69 4.32 1.32.12.06.23.14.31.26 2.48 3.57 3.52 7.52 3.09 11.73h-.01ZM18.44 6.86c-1.04-.46-2.13-.8-3.23-1.02-.09.18-.17.35-.22.5-.13.32-.46.52-.8.47-1.46-.21-2.94-.21-4.38 0A.748.748 0 0 1 9 6.34c-.05-.13-.13-.3-.23-.5-1.11.22-2.19.57-3.22 1.02-2.14 3.19-3.04 6.53-2.76 10.22 1.29.88 2.62 1.56 4.06 2.04.11-.16.21-.31.31-.48-.34-.16-.68-.34-1.02-.54a.78.78 0 0 1-.37-.6c-.01-.25.09-.49.29-.64l.11-.08c.09-.07.19-.14.27-.21.22-.19.53-.23.8-.11 3.08 1.39 6.45 1.39 9.5 0 .26-.12.58-.08.8.11.11.1.24.19.36.28a.743.743 0 0 1-.06 1.25c-.33.2-.67.38-1.03.54.1.16.2.32.31.48 1.46-.49 2.79-1.16 4.06-2.04.3-3.7-.6-7.05-2.74-10.22Z"/></svg>
